X:1255
T:Skänklåt av Gustaf Jernberg
O:Uppland
B:Melodier från Upplands bruk och Fyris bygder häfte 4, nr. 7
R:Skänklåt
C:Gustaf Jernberg
Z:Nils L
M: 2/4
L: 1/8
K: D
A | d>e dc | A2 ce | g>a gf | d2 fa | e>d cB/c/ | dd BG | [A3A3] :|
e/g/ |: fa a/b/a/^g/ | ad ef | gf/g/ af | e>f g/f/g/b/ | a>g Tfe/f/ | gg ec |1 [d3F3]e/g/ :|2 [F3d3] z |]
(:musicend:)
(:music:)
